X:370
T:John's Folly
M:2/2
L:1/4
S:Colin Hume's website,  colinhume.com  - chords can also be printed below the stave.
Q:1/2=112
C:Colin Hume, 2000
H:For John Konvalinka following a Pinewoods auction
K:G
P:A
|: "G"B2 "/"B/G/-G | "F"A2 "/"A/=F/-F | "Em"GB "/"AG | "D7"AF "/"ED |\
"G"B2 "/"B/G/-G | "F"A2 "/"A/=F/-F | "Em"GB "/"AG | "D7"A2 "G"G2 :|
P:B
|: "G"dB/c/ "/"de | "G"dB "/"AG | "D"AD "/"DF/G/ | "D7"AF "/"ED |\
"G"dB/c/ "/"de | "G"dB "/"AG | "D"AD "/"DF/G/ | "D7"A2 "G"G2 :|

